X: 71
T:Missa L'homme arm\'e super voces musicales / Kyrie
N: Derived from Jos0603a-Missa_Lhomme_arme_super_voces_musicales-Kyrie.krn
C: Josquin des Prez
%%abc-version 2.0
%%abcx-abcm2ps-target-version 5.9.1 (29 Sep 2008)
%%abc-creator hum2abc beta
%%abcx-conversion-date 2019/02/12 16:15:41
%%abc-edited-by Jesse Rodin
%%abc-edited-by Jesse Rodin; Victoria Chang 2011/05/11
%%abcx-initial-encoding-date 2011/05/11/
%%humdrum-veritas 831571564
%%humdrum-veritas-data 1001128078
%%linebreak <none>
%%barnumbers 0
L: 1/4
M: 3/1
Q: 1/2=120
%%staves [1 2 3 4]
V: 1 clef=treble
V: 2 clef=treble-8
V: 3 clef=treble-8
V: 4 clef=bass
K: C
[V:1] z12 | 
[V:2] d8f4 | 
[V:3] z12 :
[V:4] D,12 | 
[V:1] z12 | 
[V:2] e2d4c2B4 | 
[V:3] z12 :
[V:4] G,8G,4 | 
[V:1] D4D2G4G2 | 
[V:2] A2B3ABd2^c/B/^c2 | 
[V:3] z12 | 
[V:4] F,2G,3F,E,D,E,4 | 
[V:1] F2E4D2E4 | 
[V:2] d4c2d3B^c2 | 
[V:3] z12 :
[V:4] D,2A,4F,2G,2A,2 | 
[V:1] D4z2A2A2D2 | 
[V:2] d2B2c2d2A2B2 | 
[V:3] z12 :
[V:4] D,2G,2F,2D,4G,2 | 
[V:1] z2A4A2A3G | 
[V:2] c2d2A2Bc2dB2 | 
[V:3] z12 | 
[V:4] F,2D,3C,D,E,F,D,E,2 | 
[V:1] A2G3FEDEDE2 | 
[V:2] A2e3dcBc4 | 
[V:3] C8C4 :
[V:4] A,,2C,3D,E,2A,,4 | 
[V:1] D4z2D2F3G | 
[V:2] d8d4 | 
[V:3] F12 :
[V:4] _B,,8B,,3A,, | 
[V:1] A4G8 | 
[V:2] c6BAG3A | 
[V:3] F4E8 | 
[V:4] F,,4z4C,4 | 
[V:1] F4D2F2EDCB, | 
[V:2] _B2A2F4G4 | 
[V:3] D8C4 :
[V:4] D,2F,4E,D,E,4 | 
[V:1] A,2D3EF4ED | 
[V:2] F6EDF4 | 
[V:3] D12 :
[V:4] F,4_B,,8 | 
[V:1] E2A3Bc4BA | 
[V:2] z2c4BAc4 | 
[V:3] C8z4 | 
[V:4] A,,8A,,4 | 
[V:1] B2G2z2E3FG2 | 
[V:2] d6G2c3B | 
[V:3] G4G4C4 :
[V:4] G,,3A,,B,,2C,3D,E,2 | 
[V:1] A2D2z2G4E2 | 
[V:2] A2G2B3cd2G2 | 
[V:3] z4G8 :
[V:4] F,2G,2G,,3A,,B,,2C,2- | 
[V:1] G3FD2E4D2- | 
[V:2] c4B2c4BA | 
[V:3] G4G6F2 | 
[V:4] C,D,E,F,G,2C,4D,2 | 
[V:1] D2^C2D2A4G2 | 
[V:2] G4z2A3Bc2 | 
[V:3] G4F6E2 :
[V:4] E,4D,3E,F,2G,2 | 
[V:1] F2E2F2E2F2D2 | 
[V:2] dDE2D2E2DEFD | 
[V:3] D2C2D2C2D4 :
[V:4] A,12 | 
[V:1] E12 ||  
[V:2] A12 ||  
[V:3] C12 ||  
[V:4] A,,12 ||  
[V:1]  [K:C] [K:clef=treble][M:2/1]E4F2G2- | 
[V:2]  [K:C] [K:clef=treble-8][M:2/1]z8 | 
[V:3]  [K:C] [K:clef=treble-8][M:12/0]z8 :
[V:4]  [K:C] [K:clef=bass][M:2/1]A,6G,2- | 
[V:1] GFEDC4 | 
[V:2] z4e4 | 
[V:3] x8 :
[V:4] G,4A,3G, | 
[V:1] z8 | 
[V:2] e2d4d2 | 
[V:3] x8 :
[V:4] E,2G,2F,4 | 
[V:1] z2E2G3A | 
[V:2] e2c2B4 | 
[V:3] z8 :
[V:4] E,4z4 | 
[V:1] B2c2B2d2- | 
[V:2] e4e2d2- | 
[V:3] x8 :
[V:4] E,4G,4 | 
[V:1] dcBAG4 | 
[V:2] d2d2e2c2 | 
[V:3] x8 | 
[V:4] F,4E,4 | 
[V:1] z2G3ABc | 
[V:2] B4e4 | 
[V:3] z8 :
[V:4] G,6F,2 | 
[V:1] d3cA2c2 | 
[V:2] f6e2 | 
[V:3] x8 :
[V:4] D,2F,3E,C,2 | 
[V:1] B2A4^G2 | 
[V:2] d2c2B4 | 
[V:3] x8 :
[V:4] D,4E,4 | 
[V:1] A8- | 
[V:2] z4A4- | 
[V:3] c8- :
[V:4] A,,8 | 
[V:1] A8 | 
[V:2] A2B2c2d2 | 
[V:3] c8 :
[V:4] z4A,4- | 
[V:1] z4A4 | 
[V:2] e4f4 | 
[V:3] c8 | 
[V:4] A,4F,4 | 
[V:1] B2G4FE | 
[V:2] d4e4- | 
[V:3] B8- :
[V:4] G,4E,4- | 
[V:1] G3FD4 | 
[V:2] e2d2B4- | 
[V:3] B8 :
[V:4] E,4G,4- | 
[V:1] z4D4 | 
[V:2] B2c2d4 | 
[V:3] B8 :
[V:4] G,2F,2D,4 | 
[V:1] E2C4B,A, | 
[V:2] G4A4- | 
[V:3] c8 :
[V:4] C,4F,4- | 
[V:1] C2D2E4 | 
[V:2] A2G2E4 | 
[V:3] A8- :
[V:4] F,2E,2C,4 | 
[V:1] A,2F3EDC | 
[V:2] F4D4 | 
[V:3] A8 | 
[V:4] D,8 | 
[V:1] B,4z2G2- | 
[V:2] z2G3ABc | 
[V:3] G8- :
[V:4] E,8- | 
[V:1] GABcB2c2- | 
[V:2] B2e6- | 
[V:3] G8- :
[V:4] E,8- | 
[V:1] c2BAG4 | 
[V:2] e2dcB4 | 
[V:3] G8 :
[V:4] E,8 | 
[V:1] z8 | 
[V:2] A8 | 
[V:3] c8- :
[V:4] z4z2A,,2- | 
[V:1] z2A2G2A2- | 
[V:2] z4z2A2- | 
[V:3] c8 :
[V:4] A,,B,,C,D,E,2F,2- | 
[V:1] A2GFE4 | 
[V:2] ABcde2c2 | 
[V:3] c8 | 
[V:4] F,2E,D,C,4 | 
[V:1] z8 | 
[V:2] d2G3FG2 | 
[V:3] B8- :
[V:4] z4z2G,,2- | 
[V:1] z2G2F2G2- | 
[V:2] D4z4 | 
[V:3] B8 :
[V:4] G,,A,,B,,C,D,2E,2- | 
[V:1] G2FED4 | 
[V:2] z4D4 | 
[V:3] B8 :
[V:4] E,2D,C,B,,4 | 
[V:1] E8 | 
[V:2] A6B2 | 
[V:3] c8 :
[V:4] A,,8- | 
[V:1] z4c4- | 
[V:2] c6BA | 
[V:3] A8- :
[V:4] A,,8- | 
[V:1] c2BAc4 | 
[V:2] c2d2e2f2 | 
[V:3] A8 | 
[V:4] A,,8 | 
[V:1] B6c2- | 
[V:2] g3fede2- | 
[V:3] G8- :
[V:4] E,8- | 
[V:1] c2BAG4 | 
[V:2] e2dcB4 | 
[V:3] G8- :
[V:4] E,8- | 
[V:1] z4G4 | 
[V:2] z8 | 
[V:3] G8 :
[V:4] E,8 | 
[V:1] A4G4 | 
[V:2] z8 | 
[V:3] c8- :
[V:4] F,4E,4 | 
[V:1] A4c4- | 
[V:2] A8 | 
[V:3] c8- :
[V:4] F,8 | 
[V:1] c2B2G4 | 
[V:2] G8 | 
[V:3] c8 | 
[V:4] E,8 | 
[V:1] F8- | 
[V:2] A8 | 
[V:3] d8- :
[V:4] D,8- | 
[V:1] F4D4 | 
[V:2] F6G2 | 
[V:3] d8- :
[V:4] D,8- | 
[V:1] F8 | 
[V:2] A6B2 | 
[V:3] d8 :
[V:4] D,8 | 
[V:1] E8- | 
[V:2] c4A4 | 
[V:3] c8 :
[V:4] A,8 | 
[V:1] E8- | 
[V:2] E8 | 
[V:3] B8 :
[V:4] G,8 | 
[V:1] E8- | 
[V:2] c8- | 
[V:3] A8 | 
[V:4] A,8 | 
[V:1] E8- | 
[V:2] c4B4 | 
[V:3] G8- :
[V:4] E,8- | 
[V:1] E8 ||  
[V:2] B8 ||  
[V:3] G8 ||  
[V:4] E,8 ||  
[V:1]  [K:C] [K:clef=treble][M:3/1]A,4C3DE2F2 | 
[V:2]  [K:C] [K:clef=treble-8][M:3/1]z4A4c3d | 
[V:3]  [K:C] [K:clef=treble-8][M:9/1]z12 :
[V:4]  [K:C] [K:clef=bass][M:3/1]z12 | 
[V:1] E2A4GFE4 | 
[V:2] e2f4ed^c4 | 
[V:3] z12 :
[V:4] A,,4A,,4A,,4 | 
[V:1] D2F4E2F2D2 | 
[V:2] d4z4d4 | 
[V:3] z12 | 
[V:4] D,4D,2C,2B,,4 | 
[V:1] E4C2E3FGA | 
[V:2] c6B2G4- | 
[V:3] C12 :
[V:4] A,,4z4E,4 | 
[V:1] G2E2z2C2E3F | 
[V:2] G4A8 | 
[V:3] C12 :
[V:4] E,4A,,4z4 | 
[V:1] GAG3FEDC3B, | 
[V:2] G4z4G4 | 
[V:3] C12 | 
[V:4] E,4E,4E,4 | 
[V:1] D2A3Bc2d4 | 
[V:2] A8D4 | 
[V:3] F12 :
[V:4] D,4D,2C,2B,,4 | 
[V:1] c6BAG4 | 
[V:2] A3BcAd4^c2 | 
[V:3] F4E8 :
[V:4] A,,4z4z4 | 
[V:1] F2_B3AA4G2 | 
[V:2] d12 | 
[V:3] D12 | 
[V:4] _B,,12 | 
[V:1] A4c6BA | 
[V:2] e8c4 | 
[V:3] C12 :
[V:4] A,,8A,,4 | 
[V:1] B4z2G3FE2 | 
[V:2] d4G3AB2c2 | 
[V:3] z12 :
[V:4] G,,2G,3F,E,3D,C,2 | 
[V:1] D2E2D4z2G2- | 
[V:2] d2GABcd2G3A | 
[V:3] G12 | 
[V:4] B,,2C,2G,,2G,3F,E,2- | 
[V:1] GFE2D2E2D4 | 
[V:2] B2c2d2c4B2 | 
[V:3] G12 :
[V:4] E,D,C,2B,,2C,2G,,4 | 
[V:1] E12 | 
[V:2] c6BAG4 | 
[V:3] C12 :
[V:4] G,4z2G,4F,E, | 
[V:1] D12 | 
[V:2] A2B4AGA2B2 | 
[V:3] z12 | 
[V:4] F,2G,4F,E,F,2G,2 | 
[V:1] E8E4 | 
[V:2] c4B2c2G2c2 | 
[V:3] G12 :
[V:4] C,4z2C,4B,,A,, | 
[V:1] D2E4DCD2E2 | 
[V:2] B2G2z2C2G3A | 
[V:3] G12 :
[V:4] B,,2C,4B,,A,,B,,2C,2 | 
[V:1] D3CD2E3FG2 | 
[V:2] B3AB2c3BG2 | 
[V:3] G12 | 
[V:4] G,,4z2C,3D,E,2 | 
[V:1] C2F3EC2D3C | 
[V:2] A2F3GA2DEFG | 
[V:3] F12 :
[V:4] F,2D,3C,A,,2_B,,3A,, | 
[V:1] A,4z4E4 | 
[V:2] ABcde2d4^c2 | 
[V:3] F4E8 :
[V:4] F,,G,,A,,B,,C,2D,2A,,4 | 
[V:1] F6EDF4 | 
[V:2] d4z2D3EF2 | 
[V:3] D12 | 
[V:4] z2D,2F,3G,A,3B, | 
[V:1] E4z2E3FG2 | 
[V:2] G2A2E2c3de2 | 
[V:3] C12 :
[V:4] C3B,G,2A,3G,E,2 | 
[V:1] A3GE2F3EC2 | 
[V:2] A3Bc2F3GA2 | 
[V:3] z12 :
[V:4] F,3E,C,2D,3C,A,,2 | 
[V:1] D2E3DD4^C2 | 
[V:2] D2A2F2G2E4 | 
[V:3] z12 | 
[V:4] B,,2A,,2B,,2G,,2A,,4 | 
[V:1] D12 |]  
[V:2] D12 |]  
[V:3] z12 |]  
[V:4] D,12 |]  



